X: 15127
T: Gift Of Music, The
R: slip jig
M: 9/8
K: Gminor
B2d cBc dBG|B2d cBc dBF|A2c A2c AGF|CFG AcB AGF:|
|:gfd dcA B2G|B2d cBc dBG|gfd dcA B2G|A2c A2c AGF:|

